!! Cantigas de Santa Maria, No. 14
!! Transcribed by Higinio Angle/s
!! From Higinio Angle/s, "La Mu/sica de las Cantigas de Santa Mari/a
!! del rey Alfonso el Sabio", Barcelona: Biblioteca Central, 1943
**kern	**text
*M3/4	*Galician
*k[b-]	*
=1	.
8g	Par
8f	.
(4f	De-
4e)	-us,
=2	.
4f	muit'
(4f	e/
4g)	.
=3	.
4a	gran
(8g	ra-
8a	.
8b-	.
8a)	.
=4	.
2.g,	-zon
=4	.
4g	de
(4f	po-
4e)	.
=5	.
4d	der
(4d	San-
4e)	.
=6	.
8g	ta
8f	.
(4e	Ma-
4d)	.
=7	.
8e	-ri-
8d	.
2c,	a
=8	.
4e	mais
2g	de
=9	.
4a	quan-
(4b-	-tos
4a)	.
=10	.
8g	san-
8f	.
(4f	tos
4e)	.
=11	.
2.f,	son.
=12	.
4cc	E
(4cc	muit'
4b-)	.
=13	.
4g	e/
(4a	cou-
4b-)	.
=14	.
4cc	sa
(4b-	guy-
4a)	.
=15	.
4cc	-sa-
2cc,	-da
=16	.
4cc	de
(4cc	po-
4b-)	.
=17	.
4g	der
(4a	mui-
4g)	.
=18	.
4f	-to
(4e	con
4f)	.
=19	.
2.g,	Deus
=20	.
4cc	a
(4cc	que
4b-)	.
=21	.
4g	o
(4a	troux'
4b-)	.
=22	.
4cc	en
(4b-	seu
4a)	.
=23	.
4cc	cor-
2cc,	-po,
=24	.
4cc	et
(4cc	de-
4b-)	.
=25	.
4g	-pois
(4a	nos
4g)	.
=26	.
4f	bra-
(4g	-c5os
4e)	.
=27	.
2.f,	seus
=28	.
4g	o
(4f	trou-
4e)	.
=29	.
4f	-xe
(4f	-mui-
4g)	.
=30	.
4a	-tas
(8g	ve-
8a	.
8b-	.
8a)	.
=31	.
4g	-ga-
2g,	-das
=32	.
4g	et
(4f	con
4e)	.
=33	.
4d	pa-
(4d	-vor
4e)	.
=34	.
(8g	dos
8f)	.
(4e	ju-
4d)	.
=35	.
(4e	-deus
2c),	.
=36	.
4g	fu-
(4f	-giu
4e)	.
=37	.
4f	con
(4f	el
4g)	.
=38	.
4a	a
(8g	E-
8a	.
8b-	.
8a)	.
=39	.
4g	-gip-
2g,	-to,
=40	.
4g	ter-
(4f	-ra
4e)	.
=41	.
4f	de
(4g	rey
8a	.
8g)	.
=42	.
4f	Fa-
(4g	-ra-
4e),	-on.
==43	.
(8g	Par
8f)	.
(4f	De-
4e)	-us,
=44	.
(8f	muit'
8e)	.
(4f	e/
4g)	.
=45	.
4a	gran
(8g	ra-
8a	.
8b-	.
8a)	.
=46	.
2.g,	-zon
==	==
*-	*-
